X:7869
T:Fyrtur
C:anon.
O:Sweden
A:Hyllinge
N:After Johannes Nord
Z:Transcribed by Frank Nordberg - http://www.musicaviva.com
F:http://abc.musicaviva.com/tunes/sweden/fyrtur.abc
M:2/4
L:1/16
K:D
A2|"D"dcedf4|"D"fegfa4|"D"^faba fdfa|"A"agec "D"d2A2|
"D"dcedf4|"D"fegfa4|"D"^faba fdfa|"A"agec "D"d2:|
|:A2|"D"AFAc "G"BGBd|"A"cdec "D"defd|"D"AFAc "G"BGBd|"A"cdec "D"d2d2|
"D"AFAc "G"BGBd|"A"cdec "D"defd|"D"AFAc "G"BGBd|"A"cdec "D"d2:|
W:
W:
W:  From Musica Viva - http://www.musicaviva.com
W:  the Internet center for free sheet music downloads.
